X:320
T:Sweeney's Buttermilk
R:reel
C:Brendan McGlinchey
Z:Transcribed by Dave Marshall
M:C|
K:Bdor
|:FB~B2 fB~B2|dcBc AE~E2|FB~B2 ABce|afec Baga|
f2ec fcec|~B3c BAFE|FB~B2 ABce|afec B2BA:|
|:FBdc BF~F2|EAcB AE~E2|FBdc Bdfb|afec Bcdc|
Bcde fB~B2|afec ABce|~f3a bf~f2|afec B2BA:|
